X:0366
T:Moar Nein I Giberlan.
T:Moar Neine I Giberlan [index]
N:Aird prints the variant repeats explicitly
M:2/4
L:1/8
Q:1/4=80
I: (1) :| (2) || (1) :| (2) ||
Z:Jack Campin * www.campin.me.uk * 2009
K:A Dorian
  A2    A>B|e2 d>B|A2  d2 | B>G  E2|G>A G>B|     d2  TBG |E2 GA|   GEDE |
  G2    G2 |g2 d>g|e2  gf | e>d  B2|d>e g>f|    Te2   d<B|A2 d2|[1 BAA2:|\
                                                                [2 BAA ||
B|A/A/A A>B|e2 dB |A<A A>d| B(AA)B |d(BTAG)|({GA}B2) TAG |E2 GA|   GEDE |
 .G2   .G2 |g2 dg |e2 (gf)|(ed) TB2|d>eg>f |    Te2   d<B|A2 d2|[1 BAA :|\
                                                                [2 BAA2|]
<end>
<start>
